src/status/16/audio-volume-low-panel.svg

<?xml version="1.0" encoding="UTF-8" standalone="no"?>
<svg
   width="16"
   height="16"
   enable-background="new"
   version="1.1"
   id="svg5"
   sodipodi:docname="audio-volume-low-panel.svg"
   inkscape:version="1.4 (e7c3feb100, 2024-10-09)"
   xmlns:inkscape="http://www.inkscape.org/namespaces/inkscape"
   xmlns:sodipodi="http://sodipodi.sourceforge.net/DTD/sodipodi-0.dtd"
   xmlns="http://www.w3.org/2000/svg"
   xmlns:svg="http://www.w3.org/2000/svg">
  <defs
     id="defs5" />
  <sodipodi:namedview
     id="namedview5"
     pagecolor="#c8c8c8"
     bordercolor="#000000"
     borderopacity="0.25"
     inkscape:showpageshadow="2"
     inkscape:pageopacity="0.0"
     inkscape:pagecheckerboard="0"
     inkscape:deskcolor="#d1d1d1"
     inkscape:zoom="16.528621"
     inkscape:cx="1.4520268"
     inkscape:cy="8.409655"
     inkscape:window-width="2560"
     inkscape:window-height="1411"
     inkscape:window-x="0"
     inkscape:window-y="0"
     inkscape:window-maximized="1"
     inkscape:current-layer="svg5" />
  <g
     id="g5-3"
     transform="translate(0.04553)">
    <path
       class="ColorScheme-Text"
       fill="currentColor"
       d="m 13.68434,2.91298 c -0.58741,-0.53488 -1.1988,0.22518 -0.68359,0.73242 1.2147,1.1326 1.9056,2.7181 1.9082,4.3789 -0.002,1.6654 -0.69594,3.2551 -1.916,4.3887 -0.46835,0.44623 0.17346,1.1467 0.67969,0.72852 1.423,-1.3216 2.233,-3.1751 2.2363,-5.1172 -0.002,-1.9383 -0.80739,-3.789 -2.2246,-5.1113 z"
       style="color:#363636;fill:#fefefe;fill-opacity:1;opacity:0.3"
       id="path1" />
    <path
       class="ColorScheme-Text"
       fill="currentColor"
       d="M 7.3861106 1.5 C 7.1989706 1.4885 6.8262044 1.6396225 6.6947044 1.7578125 L 4.0911887 5 L 1.6361106 5 C 0.72957062 5 -0.000608125 5.75528 -0.000608125 6.75 L -0.000608125 9.25 C -0.000608125 10.24472 0.72957062 11 1.6361106 11 L 4.0911887 11 L 6.876345 14.333984 C 7.007825 14.452194 7.1990206 14.51154 7.3861106 14.5 C 7.6979106 14.4807 7.9993919 14.262506 7.9993919 13.785156 L 7.9993919 2.2148438 C 7.9993919 1.7374938 7.6980206 1.51932 7.3861106 1.5 z M 6.9993919 2.9511719 L 6.9993919 3.1757812 L 6.9993919 12.757812 L 6.9993919 13.03125 L 4.5130637 10 L 1.8333762 10 C 1.7762763 10 1.7191775 9.9930219 1.6654075 9.9824219 L 1.6634544 9.9824219 C 1.6097544 9.9715219 1.5585375 9.9562469 1.5091575 9.9355469 L 1.5072044 9.9355469 C 1.4573044 9.9145469 1.4108994 9.8873219 1.3665794 9.8574219 C 1.3222794 9.8275219 1.2811825 9.7935194 1.2435325 9.7558594 C 1.2058325 9.7181594 1.17183 9.6771625 1.14197 9.6328125 C 1.11207 9.5885125 1.084845 9.5421075 1.063845 9.4921875 L 1.063845 9.4902344 C 1.043145 9.4408344 1.02797 9.3896775 1.01697 9.3359375 L 1.01697 9.3339844 C 1.01097 9.3067844 1.0061981 9.2800531 1.0032981 9.2519531 C 1.0002981 9.2238531 0.99939187 9.1948156 0.99939188 9.1660156 L 0.99939188 6.8339844 C 0.99939188 6.7769844 1.00637 6.7197956 1.01697 6.6660156 L 1.01697 6.6640625 C 1.02787 6.6103625 1.043145 6.5591556 1.063845 6.5097656 L 1.063845 6.5078125 C 1.084845 6.4579125 1.11207 6.4115075 1.14197 6.3671875 C 1.17187 6.3228875 1.2058725 6.2817906 1.2435325 6.2441406 C 1.2812325 6.2064406 1.3222294 6.1724381 1.3665794 6.1425781 C 1.4108794 6.1126781 1.4572844 6.0854531 1.5072044 6.0644531 L 1.5091575 6.0644531 C 1.5585575 6.0437531 1.6097144 6.0285781 1.6634544 6.0175781 C 1.7177544 6.0064781 1.7756762 6 1.8333762 6 L 4.5130637 6 L 6.9993919 2.9511719 z M 10.018923 4.1992188 C 9.6428947 4.2156039 9.374275 4.7128731 9.7279075 5.0957031 C 10.538358 5.8507131 10.999445 6.908025 11.001345 8.015625 C 11.000345 9.125925 10.537341 10.185706 9.7240013 10.941406 C 9.2514113 11.371336 9.8635688 12.093605 10.403689 11.671875 C 11.420489 10.727625 11.999145 9.403225 12.001345 8.015625 C 11.999345 6.631225 11.423921 5.3094344 10.411501 4.3652344 C 10.281264 4.2418119 10.144266 4.193757 10.018923 4.1992188 z "
       id="path2"
       style="fill:#ffffff;fill-opacity:1" />
  </g>
</svg>

<?xml version="1.0" encoding="UTF-8" standalone="no"?>
<svg
   width="16"
   height="16"
   enable-background="new"
   version="1.1"
   id="svg5"
   sodipodi:docname="audio-volume-low-panel.svg"
   inkscape:version="1.3.2 (091e20ef0f, 2023-11-25, custom)"
   xmlns:inkscape="http://www.inkscape.org/namespaces/inkscape"
   xmlns:sodipodi="http://sodipodi.sourceforge.net/DTD/sodipodi-0.dtd"
   xmlns="http://www.w3.org/2000/svg"
   xmlns:svg="http://www.w3.org/2000/svg">
  <defs
     id="defs5" />
  <sodipodi:namedview
     id="namedview5"
     pagecolor="#c8c8c8"
     bordercolor="#000000"
     borderopacity="0.25"
     inkscape:showpageshadow="2"
     inkscape:pageopacity="0.0"
     inkscape:pagecheckerboard="0"
     inkscape:deskcolor="#d1d1d1"
     inkscape:zoom="16.528621"
     inkscape:cx="1.4822773"
     inkscape:cy="8.409655"
     inkscape:window-width="1920"
     inkscape:window-height="955"
     inkscape:window-x="0"
     inkscape:window-y="34"
     inkscape:window-maximized="1"
     inkscape:current-layer="svg5" />
  <g
     id="g5-3"
     transform="translate(0.04553)">
    <path
       id="path1277"
       d="m 13.68434,2.91298 c -0.58741,-0.53488 -1.1988,0.22518 -0.68359,0.73242 1.2147,1.1326 1.9056,2.7181 1.9082,4.3789 -0.002,1.6654 -0.69594,3.2551 -1.916,4.3887 -0.46835,0.44623 0.17346,1.1467 0.67969,0.72852 1.423,-1.3216 2.233,-3.1751 2.2363,-5.1172 -0.002,-1.9383 -0.80739,-3.789 -2.2246,-5.1113 z"
       style="color:#363636;fill:#fefefe;fill-opacity:1;opacity:0.3" />
    <path
       id="path1279"
       d="M 10.41085,4.36602 C 9.8899,3.87233 9.25575,4.58605 9.72726,5.09649 c 0.81045,0.75501 1.2715,1.8123 1.2734,2.9199 -10e-4,1.1103 -0.46396,2.1701 -1.2773,2.9258 -0.47259,0.42993 0.13957,1.1522 0.67969,0.73047 1.0168,-0.94425 1.5955,-2.2686 1.5977,-3.6562 -0.002,-1.3844 -0.57738,-2.7062 -1.5898,-3.6504 z"
       style="color:#363636;fill:#fefefe;fill-opacity:1" />
    <path
       id="path2670"
       style="color:#363636;fill:#fefefe;fill-opacity:1;stroke:#fefefe;stroke-width:0;stroke-miterlimit:4;stroke-dasharray:none;stroke-opacity:1"
       d="M 7.38672,1.49968 C 7.19958,1.48818 6.82681,1.6393 6.69531,1.75749 L 4.0918,4.99968 H 1.63672 C 0.73018,4.99968 0,5.75496 0,6.74968 v 2.49985 c 0,0.99472 0.73018,1.75 1.63672,1.75 H 4.0918 l 2.78515,3.33398 c 0.13148,0.11821 0.32268,0.17756 0.50977,0.16602 C 7.69852,14.48023 8,14.26203 8,13.78468 V 2.21452 C 8,1.73717 7.69863,1.519 7.38672,1.49968 Z M 7,2.95206 v 0.22461 9.58018 0.27344 L 4.51337,9.99953 H 1.83398 c -0.0571,0 -0.11419,-0.007 -0.16796,-0.0176 -6.3e-4,-1.3e-4 -0.001,1.3e-4 -0.002,0 -0.0537,-0.0109 -0.10491,-0.0262 -0.15429,-0.0469 -5.3e-4,-2.3e-4 -0.001,2.2e-4 -0.002,0 C 1.45783,9.91403 1.41143,9.88683 1.36711,9.85693 1.32281,9.82703 1.28171,9.79303 1.24406,9.75537 1.20636,9.71767 1.17236,9.67667 1.1425,9.63232 1.1126,9.58802 1.0854,9.54162 1.0644,9.4917 c -2.3e-4,-5.6e-4 2.4e-4,-10e-4 0,-0.002 C 1.0437,9.4403 1.0285,9.38915 1.0175,9.33541 c -1.3e-4,-6.2e-4 1.2e-4,-10e-4 0,-0.002 -0.006,-0.0272 -0.0108,-0.0539 -0.0137,-0.082 -0.003,-0.0281 -0.004,-0.0571 -0.004,-0.0859 V 6.83363 c 0,-0.057 0.007,-0.11419 0.0176,-0.16797 1.2e-4,-6.2e-4 -1.3e-4,-0.001 0,-0.002 0.0109,-0.0537 0.0262,-0.10491 0.0469,-0.1543 2.2e-4,-5.2e-4 -2.2e-4,-0.001 0,-0.002 0.021,-0.0499 0.0482,-0.0963 0.0781,-0.14062 0.0299,-0.0443 0.0639,-0.0854 0.10156,-0.12305 0.0377,-0.0377 0.0787,-0.0717 0.12305,-0.10156 0.0443,-0.0299 0.0907,-0.0571 0.14062,-0.0781 5.6e-4,-2.3e-4 10e-4,2.3e-4 0.002,0 0.0494,-0.0207 0.10055,-0.0359 0.15429,-0.0469 0.0543,-0.0111 0.11222,-0.0176 0.16992,-0.0176 h 2.67939 z"
       sodipodi:nodetypes="cccsssscccssccccccscccccccccsccssscscccccccscc" />
  </g>
</svg>
